X:1
T:Lamentation over Boston
T:Lamentation over Boston
T:Tenor
T:William Billings
C:William Billings
L:1/8
M:3/2
K:C
V:1 treble transpose=-12 
V:1
 A8 E4 | A4 B4 c4 | B2 B2 B4 A4 | c4 B2 A2 ^G4 |[M:2/2] A8 | z4 A4 | G8 | z4 c4 | B8 | z4 e4 | d8 | %11
w: By the|Ri- vers of|Wa- ter- town we|sat down * and|wept,|we|wept,|we|wept|we|wept|
 z4 c4 | e2 c2 d2 B2 | c2 B2 A2 c2 | B4 B4 | z4 c4 | e2 e2 e2 c2 | d2 c2 B4 | A4 A4 | z8 z8 | %20
w: when|we re- mem- ber'd|thee * * O|Bos- ton,|when|we re- mem- ber'd|thee, * O|Bos- ton||
 e4 d2 c2 | B4 B2 B2 | c4 c2 c2 | d4 d2 e2 | A2 A2 B2 B2 | c2 B2 A2 Ac | B4 B2 B2 | c4 c2 e2 | %28
w: Lord God of|Heav- en, pre-|serve them de-|fend them, de-|liv- er and re-|store * them un- *|to us, pre|serve them, de-|
 d4 d2 d2 | e2 d2 c2 d2 | e4 e2 ed | c4 d2 c2 | B4 A4- | A8 | z8 | z8 | z8 | z8 | z8 | z8 | z8 | %41
w: fend them, de-|liv- er and re-|store them un- *|to us *|a- gain.|||||||||
 z8 | z8 | z8 | c4 e2 e2 | e8 | c4 B4 |[M:3/2] A8 z4 |[M:2/2] e4 g2 g2 | g8 | e4 d4 | c6 B2 | %52
w: |||For- bid it,|Lord|God, for-|bid,|For- bid it,|Lord|God, for-|bid that|
 c2 B2 c2 d2 | e2 c4 d2 | e2 f2 e2 d2 | e6 e2 | e2 d2 c2 e2 | d2 c2 B4 | A8 | z4 A4 | c2 A2 B2 G2 | %61
w: those * who have|suck- ed Bos-|ton- * i- an|Breasts should|thirst * for A-|mer- i- can|Blood.|A|voice was heard in|
 A2 A2 A2 B2 | c2 e2 d2 c2 | B2 B2 B4 | z8 | e4 e4 | z8 | c3 d B3 c | A4 A4 | z8 | A4 A4 | %71
w: Rox- bur- y which|ec- cho'd thro' the|Con- ti- nent||weep- ing,||weep- * * *|* ing,||weep- ing,|
 e4 c2 B2 | c4 c2 e2 | d4 c2 B2 | c4 c4 | e3 f d3 e | c4 B2 B2 | c4 c2 e2 | d2 c2 B2 B2 | A4 A4 | %80
w: weep- ing for|Bos- ton be-|cause of their|Dan- ger,|weep- * * *|* ing for|Bos- ton be-|cause * of their|Dan- ger.|
 z4 A4 | c2 B2 c2 e2 | d6 d2 | e2 d2 c2 d2 | e6 e2 | A2 B2 c2 d2 | e3 d c2 Bc | d2 B2 G2 G2 | %88
w: Is|Bos- ton my dear|Town, is|it my na- tive|Place? for|since * their Ca-|lam- i- ty I do|ear- nest- ly re-|
 c4 c2 B2 | c6 cd | e2 c2 A2 z2 | z4 z2 ef | g2 e2 c2 f2 | e2 d2 c2 B2 | A8 |: z4 c4 | %96
w: mem- ber it|still! I do|ear- nest- ly,|I do|ear- nest- ly re-|mem- * ber it|still.|If|
 e2 e2 e2 dc | d2 d2 d2 cB | c e2 d c2 BA | G2 E2 AB cA | B8 | z4 c4 | e2 ed c2 A2 | B2 c2 B2 cd | %104
w: I for- get thee, if|I for- get thee, *|yea, * if I do *|not re- mem- * ber *|thee,|Then|let my * num- bers|cease to flow, Then *|
 e2 d2 c2 d2 | e8 | z4 c4 | e2 ed c2 A2 | d2 c2 B4- | B4 c4 | e2 c2 dc B2 | A8 | z4 A4 | %113
w: be my Muse un-|kind,|Then|let my * Tongue for-|get to move|* and|ev- er be * con-|fin'd;|Let|
 A2 B2 c2 d2 | e2 E2 A2 B2 | c2 d2 e2 d2 | c2 e6 | z4 c4 | e2 e2 d2 ef | g2 e2 c2 d2 | %120
w: hor- rid Jar- gon|split the Air and|rive my nerves a-|sun- der.|Let|hate- ful dis- cord *|greet my ear as|
 e2 d2 c2 d2 | e2 A6 | z4 A4 | c2 BA G2 E2 | A2 c2 B2 cd | e2 c2 d2 B2 | c8 | z4 c4 | e2 A2 A2 Bc | %129
w: ter- ri- ble as|Thun- der.|Let|har- mo- * ny be|ban- ish'd hence and *|Con- so- nance de-|part;|Let|dis- so- nance e- *|
 d2 G2 G2 AB | c2 BA GA Bc | A8 :| %132
w: rect her throne and *|reign with- * in * my *|Heart.|

